svg/vector_square_edit.svg

<svg xmlns="http://www.w3.org/2000/svg" viewBox="0 0 24 24"><path d="m22.7 14.4-1 1-2.1-2.1 1-1c.2-.2.6-.2.8 0l1.3 1.3c.2.2.2.5 0 .8M13 19.9l6.1-6.1 2.1 2.1-6.1 6.1H13zm-2 0v-.8l.6-.6.5-.5H8v-2H6V8h2V6h8v2h2v4.1l1.1-1.1.2-.2c.2-.2.5-.4.8-.5V8h2V2h-6v2H8V2H2v6h2v8H2v6h6v-2zM18 4h2v2h-2zM4 4h2v2H4zm2 16H4v-2h2z"/></svg>

<svg xmlns="http://www.w3.org/2000/svg" id="mdi-vector-square-edit" viewBox="0 0 24 24"><path d="M22.7 14.4L21.7 15.4L19.6 13.3L20.6 12.3C20.8 12.1 21.2 12.1 21.4 12.3L22.7 13.6C22.9 13.8 22.9 14.1 22.7 14.4M13 19.9L19.1 13.8L21.2 15.9L15.1 22H13V19.9M11 19.9V19.1L11.6 18.5L12.1 18H8V16H6V8H8V6H16V8H18V12.1L19.1 11L19.3 10.8C19.5 10.6 19.8 10.4 20.1 10.3V8H22.1V2H16.1V4H8V2H2V8H4V16H2V22H8V20L11 19.9M18 4H20V6H18V4M4 4H6V6H4V4M6 20H4V18H6V20Z" /></svg>
